projects/amora/img/play_arrow.svg

<svg width="37" height="37" viewBox="0 0 37 37" fill="none" xmlns="http://www.w3.org/2000/svg">
<mask id="mask0_36_240" style="mask-type:alpha" maskUnits="userSpaceOnUse" x="0" y="0" width="37" height="37">
<rect x="0.0305176" y="0.0307617" width="36.1832" height="36.1832" fill="#D9D9D9"/>
</mask>
<g mask="url(#mask0_36_240)">
<path d="M15.4631 24.7705C15.0572 25.0392 14.645 25.0532 14.2266 24.8125C13.8081 24.5719 13.5989 24.208 13.5989 23.721V12.5238C13.5989 12.0368 13.8081 11.6729 14.2266 11.4323C14.645 11.1916 15.0572 11.2056 15.4631 11.4743L24.2712 17.1018C24.6462 17.3454 24.8336 17.6856 24.8336 18.1224C24.8336 18.5592 24.6462 18.8994 24.2712 19.143L15.4631 24.7705Z" fill="white"/>
</g>
</svg>

<svg width="37" height="37" fill="none" xmlns="http://www.w3.org/2000/svg"><mask id="a" style="mask-type:alpha" maskUnits="userSpaceOnUse" x="0" y="0" width="37" height="37"><path fill="#D9D9D9" d="M.031.031h36.183v36.183H.031z"/></mask><g mask="url(#a)"><path d="M15.463 24.77c-.406.27-.818.283-1.236.043-.419-.241-.628-.605-.628-1.092V12.524c0-.487.21-.851.628-1.092.418-.24.83-.226 1.236.042l8.808 5.628c.375.243.563.584.563 1.02 0 .437-.188.777-.563 1.021l-8.808 5.627Z" fill="#fff"/></g></svg>
